src/actions/32/mail-thread-watch.svg

<svg version="1.1" viewBox="0 0 32 32" xmlns="http://www.w3.org/2000/svg">
 <defs>
  <style id="current-color-scheme" type="text/css">.ColorScheme-Text {
        color:#363636;
      }</style>
 </defs>
 <path class="ColorScheme-Text" d="m24 18c-3.2801 0.0043-6.2981 1.7928-7.877 4.668 0.12895 0.36375 0.35744 0.6766 0.65625 0.9082 1.3218-2.7913 4.1323-4.5725 7.2207-4.5762-2.2091 0-4 1.7909-4 4s1.7909 4 4 4 4-1.7909 4-4c-0.0012-2.0728-1.5856-3.8013-3.6504-3.9824 2.9574 0.13122 5.6006 1.8848 6.8711 4.5586 0.30152-0.2337 0.53191-0.5501 0.66016-0.91797-1.5821-2.8726-4.6014-4.6573-7.8809-4.6582zm0 2c1.6569 0 3 1.3431 3 3s-1.3431 3-3 3-3-1.3431-3-3 1.3431-3 3-3zm0 1c-1.1046 0-2 0.89543-2 2s0.89543 2 2 2 2-0.89543 2-2c-4.82e-4 -0.19935-0.03076-0.3975-0.08984-0.58789-0.16174 0.35759-0.5177 0.58751-0.91016 0.58789-0.55228 0-1-0.44772-1-1 7.31e-4 -0.39292 0.23149-0.749 0.58984-0.91016-0.19102-0.059272-0.38984-0.089557-0.58984-0.089844z" fill="currentColor"/>
 <path class="ColorScheme-Text" d="m6 5c-2.1263 0-3.8499 1.6437-3.9863 3.7344l-0.013672-0.011719v14.557l0.013672-0.01172c0.13738 2.0897 1.8607 3.7324 3.9863 3.7324h12v-1h-12c-1.662 0-3-1.338-3-3v-0.49609l7.5801-5.8809 3.6035 2.7949c0.99892 0.7749 2.6339 0.7749 3.6328 0l3.6035-2.7949 0.80273-0.62305 6.7773-5.2578v6.2575h1v-8.2809l-0.01367 0.011719c-0.13833-2.0888-1.8613-3.7305-3.9863-3.7305zm0 1h20c1.662 0 3 1.338 3 3v0.49414l-11.988 9.3008c-0.56803 0.44064-1.4574 0.44255-2.0254 2e-3l-11.986-9.2989v-0.49805c0-1.662 1.338-3 3-3zm-3 4.7422 6.7773 5.2578-6.7773 5.2578z" fill="currentColor"/>
</svg>

<svg xmlns="http://www.w3.org/2000/svg" viewBox="0 0 32 32">
    <defs>
        <style id="current-color-scheme" type="text/css">
            .ColorScheme-Text{color:#050505;opacity:.7}
        </style>
    </defs>
    <path fill="currentColor" d="M24 18a9 9 0 0 0-7.877 4.668c.129.364.357.677.656.908A8 8 0 0 1 24 19a4 4 0 1 0 .35.018 8 8 0 0 1 6.87 4.558c.302-.234.533-.55.66-.918A9 9 0 0 0 24 18zm0 2a3 3 0 1 1 0 6 3 3 0 0 1 0-6zm0 1a2 2 0 1 0 1.91 1.412 1 1 0 1 1-1.32-1.322A2 2 0 0 0 24 21z" class="ColorScheme-Text"/>
    <path fill="currentColor" d="M6 5a3.987 3.987 0 0 0-3.986 3.734L2 8.723V23.28l.014-.012A3.987 3.987 0 0 0 6 27h12v-1H6c-1.662 0-3-1.338-3-3v-.496l7.58-5.88 3.604 2.794c.999.775 2.634.775 3.632 0l3.604-2.795.803-.623L29 10.743V17h1V8.72l-.014.01A3.987 3.987 0 0 0 26 5zm0 1h20c1.662 0 3 1.338 3 3v.494l-11.988 9.3c-.568.442-1.457.443-2.025.003L3 9.498V9c0-1.662 1.338-3 3-3zm-3 4.742L9.777 16 3 21.258z" class="ColorScheme-Text"/>
</svg>
